public/images/sponsors/Australia Post.svg

<svg fill="none" height="86" viewBox="0 0 172 86" width="172" xmlns="http://www.w3.org/2000/svg" xmlns:xlink="http://www.w3.org/1999/xlink"><clipPath id="a"><path d="m0 25h172v36.9481h-172z"/></clipPath><g clip-path="url(#a)"><path d="m0 43.4715c0 7.9044 4.90009 14.643 11.7979 17.2892v-34.5758c-6.89908 2.6462-11.7979 9.3835-11.7979 17.2866zm18.2689-18.4715c-.5058 0-1.0065.0178-1.5021.0548v1.2995h.093c6.9628.051 12.5688 5.42 12.5191 11.9929-.0459 6.5424-5.6875 11.8107-12.6095 11.8043v11.738c.493.0421.995.0586 1.5008.0586 10.0856 0 18.2702-8.2725 18.2702-18.4766 0-10.2028-8.1846-18.4715-18.2702-18.4715zm35.074 22.783h-5.8862l-1.032 3.0794h-2.594l5.0428-14.7792h3.1087l5.002 14.7792h-2.6144zm-.7428-2.2284-2.2028-6.5551-2.2042 6.5551h4.4083zm12.1229-5.4734h2.5124v10.7825h-2.5112v-1.2486h-.0828c-.6791.9365-1.6053 1.52-3.0259 1.52-2.1608 0-3.561-1.5811-3.561-3.9955v-7.0571h2.5124v6.7857c0 1.2078.5759 2.0818 1.9557 2.0818 1.4397 0 2.2029-1.0192 2.2029-2.2487v-6.6188h-.0025zm6.7347 7.6597c.1656.9556.8027 1.5404 2.1405 1.5404 1.2358 0 1.9366-.5224 1.9366-1.4142 0-.7288-.2676-1.1671-1.4206-1.3123l-1.915-.2293c-2.1812-.2498-3.0871-1.292-3.0871-2.9763 0-2.0602 1.729-3.5368 4.4045-3.5368 2.7992 0 4.1586 1.6435 4.2835 3.2667h-2.4717c-.1236-.8727-.7403-1.4142-1.8513-1.4142-1.153 0-1.8945.5415-1.8945 1.3747 0 .6867.3695 1.083 1.6053 1.2282l1.8946.2294c2.0996.2484 2.924 1.2282 2.924 3.0182 0 2.2271-1.915 3.6197-4.4262 3.6197-2.9023 0-4.4465-1.4346-4.6503-3.3929h2.5277zm9.2829-5.7868h-2.0372v-1.8729h2.0602v-3.9968h2.4895v3.9955h2.45v1.8729h-2.45v5.5359c0 .9797.4931 1.376 1.4422 1.376h1.0282v1.9977h-1.4613c-2.3685 0-3.5216-1.0829-3.5216-3.2055zm9.6129 8.9083h-2.5125v-10.7812h2.5125v1.6245h.0828c.5148-1.1862 1.3786-1.6245 2.2844-1.6245h1.2155v2.2488h-1.111c-1.6677 0-2.4704.8103-2.4704 2.7902v5.7422zm7.6152.2714c-2.0373 0-3.4158-1.2078-3.4158-3.2259 0-2.1214 1.6053-2.9342 3.3559-3.1636l2.2642-.293c.864-.0816 1.07-.4778 1.07-1.1021 0-.9173-.598-1.6232-1.8525-1.6232-1.2766 0-1.9544.7072-2.0589 1.7073h-2.552c.0612-1.8334 1.585-3.6209 4.5485-3.6209 2.7989 0 4.4469 1.6639 4.4469 4.1203v5.0785c0 .6676.103 1.3327.226 1.8525h-2.594c-.068-.4614-.102-.9273-.102-1.3938h-.062c-.555.9339-1.7302 1.6639-3.2743 1.6639zm1.9365-5.2237-1.1122.2484c-1.0499.2294-1.7073.6677-1.7073 1.6436 0 .981.5746 1.4779 1.6869 1.4779 1.2984 0 2.4904-.8523 2.4904-2.2678v-1.6869c-.308.3134-.802.4587-1.359.5848zm6.0718 2.0385v-12.6133h2.512v12.4477c0 .6663.289 1.083 1.029 1.083h.824v1.9964h-1.317c-1.957 0-3.048-1.1224-3.048-2.9138zm8.851-11.2399c0 .8728-.68 1.5404-1.544 1.5404-.203.0031-.405-.0347-.594-.111-.188-.0764-.36-.1898-.504-.3335s-.257-.3149-.334-.5033c-.077-.1885-.115-.3904-.112-.5938 0-.8728.68-1.5404 1.544-1.5404s1.544.6676 1.544 1.5416zm-.289 3.3725v10.7825h-2.512v-10.7812h2.512zm5.169 11.0526c-2.037 0-3.417-1.2078-3.417-3.2259 0-2.1214 1.605-2.9342 3.357-3.1636l2.263-.293c.865-.0816 1.07-.4778 1.07-1.1021 0-.9173-.596-1.6232-1.851-1.6232-1.278 0-1.956.7072-2.059 1.7073h-2.553c.062-1.8334 1.586-3.6209 4.548-3.6209 2.801 0 4.448 1.6639 4.448 4.1203v5.0785c0 .6676.102 1.3327.227 1.8525h-2.594c-.069-.4614-.103-.9273-.102-1.3938h-.064c-.556.9339-1.729 1.6639-3.273 1.6639zm1.935-5.2237-1.11.2484c-1.052.2294-1.709.6677-1.709 1.6436 0 .981.577 1.4779 1.688 1.4779 1.297 0 2.491-.8523 2.491-2.2678v-1.6869c-.31.3134-.805.4587-1.36.5848zm16.467-9.8257c3.149 0 5.146 1.8092 5.146 4.7855 0 3.0399-2.017 4.8287-5.146 4.8287h-3.686v5.1651h-2.654v-14.7793zm2.45 4.788c0-1.8321-1.111-2.6016-2.943-2.6016h-3.191v5.2453h3.191c1.832 0 2.943-.73 2.943-2.6437zm8.358-1.0422c3.088 0 5.147 2.2284 5.147 5.662s-2.059 5.6403-5.147 5.6403c-3.087 0-5.146-2.2067-5.146-5.6403s2.059-5.662 5.146-5.662zm2.592 5.2263c0-2.0194-.988-3.2056-2.594-3.2056s-2.594 1.1862-2.594 3.2056v.874c0 2.0181.988 3.1852 2.594 3.1852s2.594-1.1671 2.594-3.1852zm6.197 2.6844c.165.9556.802 1.5404 2.141 1.5404 1.236 0 1.935-.5224 1.935-1.4142 0-.7288-.267-1.1671-1.419-1.3123l-1.915-.2293c-2.181-.2498-3.088-1.292-3.088-2.9763 0-2.0602 1.729-3.5368 4.405-3.5368 2.799 0 4.158 1.6435 4.283 3.2667h-2.471c-.124-.8727-.741-1.4142-1.852-1.4142-1.153 0-1.895.5415-1.895 1.3747 0 .6867.371 1.083 1.607 1.2282l1.894.2294c2.099.2484 2.923 1.2282 2.923 3.0182 0 2.2271-1.915 3.6197-4.425 3.6197-2.904 0-4.448-1.4346-4.652-3.3929h2.529zm9.283-5.7868h-2.037v-1.8729h2.059v-3.9968h2.49v3.9955h2.45v1.8729h-2.45v5.5359c0 .9797.494 1.376 1.442 1.376h1.028v1.9977h-1.461c-2.368 0-3.521-1.0829-3.521-3.2055z" fill="#dc1928"/></g></svg>

<svg width="172" height="86" viewBox="0 0 172 86" fill="none" xmlns="http://www.w3.org/2000/svg">
<g clip-path="url(#clip0)">
<path d="M0 43.4715C0 51.3759 4.90009 58.1145 11.7979 60.7607V26.1849C4.89882 28.8311 0 35.5684 0 43.4715ZM18.2689 25C17.7631 25 17.2624 25.0178 16.7668 25.0548V26.3543H16.8598C23.8226 26.4053 29.4286 31.7743 29.3789 38.3472C29.333 44.8896 23.6914 50.1579 16.7694 50.1515V61.8895C17.2624 61.9316 17.7644 61.9481 18.2702 61.9481C28.3558 61.9481 36.5404 53.6756 36.5404 43.4715C36.5404 33.2687 28.3558 25 18.2702 25H18.2689ZM53.3429 47.783H47.4567L46.4247 50.8624H43.8307L48.8735 36.0832H51.9822L56.9842 50.8624H54.3698L53.3429 47.783ZM52.6001 45.5546L50.3973 38.9995L48.1931 45.5546H52.6014H52.6001ZM64.723 40.0812H67.2354V50.8637H64.7242V49.6151H64.6414C63.9623 50.5516 63.0361 51.1351 61.6155 51.1351C59.4547 51.1351 58.0545 49.554 58.0545 47.1396V40.0825H60.5669V46.8682C60.5669 48.076 61.1428 48.95 62.5226 48.95C63.9623 48.95 64.7255 47.9308 64.7255 46.7013V40.0825H64.723V40.0812ZM71.4577 47.7409C71.6233 48.6965 72.2604 49.2813 73.5982 49.2813C74.834 49.2813 75.5348 48.7589 75.5348 47.8671C75.5348 47.1383 75.2672 46.7 74.1142 46.5548L72.1992 46.3255C70.018 46.0757 69.1121 45.0335 69.1121 43.3492C69.1121 41.289 70.8411 39.8124 73.5166 39.8124C76.3158 39.8124 77.6752 41.4559 77.8001 43.0791H75.3284C75.2048 42.2064 74.5881 41.6649 73.4771 41.6649C72.3241 41.6649 71.5826 42.2064 71.5826 43.0396C71.5826 43.7263 71.9521 44.1226 73.1879 44.2678L75.0825 44.4972C77.1821 44.7456 78.0065 45.7254 78.0065 47.5154C78.0065 49.7425 76.0915 51.1351 73.5803 51.1351C70.678 51.1351 69.1338 49.7005 68.93 47.7422H71.4577V47.7409ZM80.7406 41.9541H78.7034V40.0812H80.7636V36.0844H83.2531V40.0799H85.7031V41.9528H83.2531V47.4887C83.2531 48.4684 83.7462 48.8647 84.6953 48.8647H85.7235V50.8624H84.2622C81.8937 50.8624 80.7406 49.7795 80.7406 47.6569V41.9541ZM90.3535 50.8624H87.841V40.0812H90.3535V41.7057H90.4363C90.9511 40.5195 91.8149 40.0812 92.7207 40.0812H93.9362V42.33H92.8252C91.1575 42.33 90.3548 43.1403 90.3548 45.1202V50.8624H90.3535ZM97.9687 51.1338C95.9314 51.1338 94.5529 49.926 94.5529 47.9079C94.5529 45.7865 96.1582 44.9737 97.9088 44.7443L100.173 44.4513C101.037 44.3697 101.243 43.9735 101.243 43.3492C101.243 42.4319 100.645 41.726 99.3905 41.726C98.1139 41.726 97.4361 42.4332 97.3316 43.4333H94.7796C94.8408 41.5999 96.3646 39.8124 99.3281 39.8124C102.127 39.8124 103.775 41.4763 103.775 43.9327V49.0112C103.775 49.6788 103.878 50.3439 104.001 50.8637H101.407C101.339 50.4023 101.305 49.9364 101.305 49.4699H101.243C100.688 50.4038 99.5128 51.1338 97.9687 51.1338ZM99.9052 45.9101L98.793 46.1585C97.7431 46.3879 97.0857 46.8262 97.0857 47.8021C97.0857 48.7831 97.6603 49.28 98.7726 49.28C100.071 49.28 101.263 48.4277 101.263 47.0122V45.3253C100.955 45.6387 100.461 45.784 99.904 45.9101H99.9052ZM105.977 47.9486V35.3353H108.489V47.783C108.489 48.4493 108.778 48.866 109.518 48.866H110.342V50.8624H109.025C107.068 50.8624 105.977 49.74 105.977 47.9486ZM114.828 36.7087C114.828 37.5815 114.148 38.2491 113.284 38.2491C113.081 38.2522 112.879 38.2144 112.69 38.1381C112.502 38.0617 112.33 37.9483 112.186 37.8046C112.042 37.6609 111.929 37.4897 111.852 37.3013C111.775 37.1128 111.737 36.9109 111.74 36.7075C111.74 35.8347 112.42 35.1671 113.284 35.1671C114.148 35.1671 114.828 35.8347 114.828 36.7087ZM114.539 40.0812V50.8637H112.027V40.0825H114.539V40.0812ZM119.708 51.1338C117.671 51.1338 116.291 49.926 116.291 47.9079C116.291 45.7865 117.896 44.9737 119.648 44.7443L121.911 44.4513C122.776 44.3697 122.981 43.9735 122.981 43.3492C122.981 42.4319 122.385 41.726 121.13 41.726C119.852 41.726 119.174 42.4332 119.071 43.4333H116.518C116.58 41.5999 118.104 39.8124 121.066 39.8124C123.867 39.8124 125.514 41.4763 125.514 43.9327V49.0112C125.514 49.6788 125.616 50.3439 125.741 50.8637H123.147C123.078 50.4023 123.044 49.9364 123.045 49.4699H122.981C122.425 50.4038 121.252 51.1338 119.708 51.1338ZM121.643 45.9101L120.533 46.1585C119.481 46.3879 118.824 46.8262 118.824 47.8021C118.824 48.7831 119.401 49.28 120.512 49.28C121.809 49.28 123.003 48.4277 123.003 47.0122V45.3253C122.693 45.6387 122.198 45.784 121.643 45.9101ZM138.11 36.0844C141.259 36.0844 143.256 37.8936 143.256 40.8699C143.256 43.9098 141.239 45.6986 138.11 45.6986H134.424V50.8637H131.77V36.0844H138.11ZM140.56 40.8724C140.56 39.0403 139.449 38.2708 137.617 38.2708H134.426V43.5161H137.617C139.449 43.5161 140.56 42.7861 140.56 40.8724ZM148.918 39.8302C152.006 39.8302 154.065 42.0586 154.065 45.4922C154.065 48.9258 152.006 51.1325 148.918 51.1325C145.831 51.1325 143.772 48.9258 143.772 45.4922C143.772 42.0586 145.831 39.8302 148.918 39.8302ZM151.51 45.0565C151.51 43.0371 150.522 41.8509 148.916 41.8509C147.31 41.8509 146.322 43.0371 146.322 45.0565V45.9305C146.322 47.9486 147.31 49.1157 148.916 49.1157C150.522 49.1157 151.51 47.9486 151.51 45.9305V45.0565ZM157.707 47.7409C157.872 48.6965 158.509 49.2813 159.848 49.2813C161.084 49.2813 161.783 48.7589 161.783 47.8671C161.783 47.1383 161.516 46.7 160.364 46.5548L158.449 46.3255C156.268 46.0757 155.361 45.0335 155.361 43.3492C155.361 41.289 157.09 39.8124 159.766 39.8124C162.565 39.8124 163.924 41.4559 164.049 43.0791H161.578C161.454 42.2064 160.837 41.6649 159.726 41.6649C158.573 41.6649 157.831 42.2064 157.831 43.0396C157.831 43.7263 158.202 44.1226 159.438 44.2678L161.332 44.4972C163.431 44.7456 164.255 45.7254 164.255 47.5154C164.255 49.7425 162.34 51.1351 159.83 51.1351C156.926 51.1351 155.382 49.7005 155.178 47.7422H157.707V47.7409ZM166.99 41.9541H164.953V40.0812H167.012V36.0844H169.502V40.0799H171.952V41.9528H169.502V47.4887C169.502 48.4684 169.996 48.8647 170.944 48.8647H171.972V50.8624H170.511C168.143 50.8624 166.99 49.7795 166.99 47.6569V41.9541Z" fill="#DC1928"/>
</g>
<defs>
<clipPath id="clip0">
<rect width="172" height="36.9481" fill="white" transform="translate(0 25)"/>
</clipPath>
</defs>
</svg>
